!!!SOCIAL_FUNCTION:	songs concerning the sacred stones
!!!PDT:	1918

Specific Region: Dakotas, Minnesota, Montana, Nebraska
!!!REG: Dakotas and Montana
!!!LING_GROUP: Siouan
!!!LANG: Tone
!!!OTL@ENG: Father, Sing to Me
!!!ONM: No. 73
**kern
*Imale
*clefF4
*k[b-e-a-d-g-]
*M2/4
*MM126
16f
=1
(12f
12d-)
12d-
8.d-
16d-
=2
4d-
4d-
=3
4c
4c
=4||
*M3/4
16B-
8.B-
4..B-
16f
=5||
*M2/4
(12f
12d-)
12d-
8.d-
16d-
=6
4d-
4d-
=7
4c
4c
=8
16B-
8.B-
4B-
=9
12c
12c
12c
8c
8c
=10
(8.B-
16G-)
8.G-
16B-
=11
8.B-
16B-
8.B-
16B-
=12
4B-
4B-
=13
4B-
4B-
=14||
*M3/4
16F
8.F
4..F
16F
=15||
*M2/4
8.F
16F
8.B-
16B-
=16
4B-
4B-
=17
4B-
4B-
=18||
*M3/4
16B-
8.B-
2B-
=19||
*M2/4
12c
12c
12c
8c
8c
=20
(8.B-
16G-)
8.G-
16B-
=21
8.B-
16B-
8.B-
16B-
=22
4B-
4B-
=23
4B-
4B-
=24||
*M3/4
16F
8.F
4..F
16D-
=25||
*M2/4
8.D-
16D-
8.D-
16D-
=26
4D-
4D-
=27
4C
4C
=28||
*M3/4
16BB-
8.BB-
2BB-
==
*-
!!!CNT: Native American -- Sioux
!!!MRD: 1911/07//-1914///
!!!OCL: Frances Densmore
!!!YOR1: Teton Sioux Music, Bulletin 61,
!!!YOR2: Bureau of American Ethnology, Smithsonian Institution
!!!PPR: Government Printing Office
!!!PPP: Washington, D.C.
!!!PDT: 1918///
!!!ENC: Craig Stuart Sapp
!!!END: 2002/03/25/
!!!EEV: 2002/03/31/
!!!AGN: Song of Personal Dreams/Song Concerning the Sacred Stones
!!!MPN@@SIO: Shiya'ka
!!!MPN@ENG: Teal Duck
!!!TXO: Teton Sioux
!!!MLC: Standing Rock Reservation, South Dakota, United States of America
!!!ARL: 45.9/-100.7#
!!!catalog: Catalogue No. 462
!!!PPG: 230
!!!EFL: 73/245
!!!VTS: 3657558619
